svg/charges/warhammer/lyanden-symbol.svg

<?xml version="1.0" encoding="utf-8"?>
<!-- Generator: Adobe Illustrator 22.1.0, SVG Export Plug-In . SVG Version: 6.00 Build 0)  -->
<svg version="1.1" xmlns="http://www.w3.org/2000/svg"    xmlns:dc="http://purl.org/dc/elements/1.1/"
   xmlns:cc="http://creativecommons.org/ns#"
   xmlns:rdf="http://www.w3.org/1999/02/22-rdf-syntax-ns#" xmlns:xlink="http://www.w3.org/1999/xlink" x="0px" y="0px"
	 viewBox="0 0 1000 1000" style="enable-background:new 0 0 1000 1000;" xml:space="preserve"><metadata
   id="metadata97"><rdf:RDF><cc:Work
       rdf:about=""><dc:format>image/svg+xml</dc:format><dc:type
         rdf:resource="http://purl.org/dc/dcmitype/StillImage" /><dc:title></dc:title><dc:creator><cc:Agent><dc:title>http://bakadesign.dk/warhammer-40-000-icons/</dc:title></cc:Agent></dc:creator></cc:Work></rdf:RDF></metadata>
<g style="fill:#ff0000">
<g id="Layer_2">
</g>
<g id="Layer_3">
	<g>
		<path d="M525.3,483.3c-4.2-54.5,25.2-88.1,25.2-88.1s-180.3,79.7-180.3,197.1c0,125.8,92.3,125.8,92.3,243.2
			c0,71.3-117.4,125.8-117.4,125.8S416.2,995,475,995s213.9-58.7,201.3-201.3S525.3,525.3,525.3,483.3z"/>
		<path d="M969.8,22H43v138.4c105.9-8.7,212.3-14.3,319.1-17l-0.4,0.2c-10.5,36.6-21.5,73.9-33.1,111.7c-56-3.5-112-8.6-168.2-15.3
			v104.8h140.2C236.7,544.7,158,761.1,64,995h167.8l178.6-650h188l178.6,650h167.8c-94.1-233.9-172.7-450.3-236.7-650h144.4V240.1
			c-57.3,7.1-114.7,12.3-172.2,15.8c-11.6-38-22.7-75.5-33.3-112.3l-0.4-0.3c107.3,2.7,215.1,8.3,323.3,17V22z M433.7,260
			l32.5-118.3c25.4-0.2,50.8-0.2,76.3,0L575,260.2C528,261.3,480.9,261.2,433.7,260z"/>
	</g>
</g>
</g></svg>

<?xml version="1.0" encoding="UTF-8" standalone="no"?>
<!-- Generator: Adobe Illustrator 22.1.0, SVG Export Plug-In . SVG Version: 6.00 Build 0)  -->

<svg
   xmlns:dc="http://purl.org/dc/elements/1.1/"
   xmlns:cc="http://creativecommons.org/ns#"
   xmlns:rdf="http://www.w3.org/1999/02/22-rdf-syntax-ns#"
   xmlns:svg="http://www.w3.org/2000/svg"
   xmlns="http://www.w3.org/2000/svg"
   xmlns:sodipodi="http://sodipodi.sourceforge.net/DTD/sodipodi-0.dtd"
   xmlns:inkscape="http://www.inkscape.org/namespaces/inkscape"
   version="1.1"
   x="0px"
   y="0px"
   viewBox="0 0 926.90002 973"
   xml:space="preserve"
   id="svg13"
   sodipodi:docname="lyanden-symbol.svg"
   width="926.90002"
   height="973"
   inkscape:version="0.92.3 (2405546, 2018-03-11)"><defs
   id="defs17" /><sodipodi:namedview
   pagecolor="#ffffff"
   bordercolor="#666666"
   borderopacity="1"
   objecttolerance="10"
   gridtolerance="10"
   guidetolerance="10"
   inkscape:pageopacity="0"
   inkscape:pageshadow="2"
   inkscape:window-width="451"
   inkscape:window-height="434"
   id="namedview15"
   showgrid="false"
   inkscape:zoom="0.236"
   inkscape:cx="457"
   inkscape:cy="495"
   inkscape:window-x="0"
   inkscape:window-y="0"
   inkscape:window-maximized="0"
   inkscape:current-layer="svg13" /><metadata
   id="metadata97"><rdf:RDF><cc:Work
       rdf:about=""><dc:format>image/svg+xml</dc:format><dc:type
         rdf:resource="http://purl.org/dc/dcmitype/StillImage" /><dc:title /><dc:creator><cc:Agent><dc:title>http://bakadesign.dk/warhammer-40-000-icons/</dc:title></cc:Agent></dc:creator></cc:Work></rdf:RDF></metadata>
<g
   style="fill:#ff0000"
   id="g11"
   transform="translate(-43,-22)">
<g
   id="Layer_2">
</g>
<g
   id="Layer_3">
	<g
   id="g8">
		<path
   d="m 525.3,483.3 c -4.2,-54.5 25.2,-88.1 25.2,-88.1 0,0 -180.3,79.7 -180.3,197.1 0,125.8 92.3,125.8 92.3,243.2 0,71.3 -117.4,125.8 -117.4,125.8 0,0 71.1,33.7 129.9,33.7 58.8,0 213.9,-58.7 201.3,-201.3 -12.6,-142.6 -151,-268.4 -151,-310.4 z"
   id="path4"
   inkscape:connector-curvature="0" />
		<path
   d="M 969.8,22 H 43 v 138.4 c 105.9,-8.7 212.3,-14.3 319.1,-17 l -0.4,0.2 c -10.5,36.6 -21.5,73.9 -33.1,111.7 -56,-3.5 -112,-8.6 -168.2,-15.3 V 344.8 H 300.6 C 236.7,544.7 158,761.1 64,995 H 231.8 L 410.4,345 h 188 L 777,995 H 944.8 C 850.7,761.1 772.1,544.7 708.1,345 H 852.5 V 240.1 c -57.3,7.1 -114.7,12.3 -172.2,15.8 -11.6,-38 -22.7,-75.5 -33.3,-112.3 l -0.4,-0.3 c 107.3,2.7 215.1,8.3 323.3,17 V 22 Z M 433.7,260 466.2,141.7 c 25.4,-0.2 50.8,-0.2 76.3,0 L 575,260.2 c -47,1.1 -94.1,1 -141.3,-0.2 z"
   id="path6"
   inkscape:connector-curvature="0" />
	</g>
</g>
</g></svg>
